svgs/light/martini-glass-citrus.svg

<svg xmlns="http://www.w3.org/2000/svg" viewBox="0 0 576 512"><!--! Font Awesome Pro 6.3.0 by @fontawesome - https://fontawesome.com License - https://fontawesome.com/license (Commercial License) Copyright 2023 Fonticons, Inc. --><path d="M304 480H224v-121.8l187.8-203.4c4.312-4.656 5.453-11.44 2.906-17.25C412.1 131.8 406.4 128 400 128H15.1C9.639 128 3.889 131.8 1.342 137.6C-1.205 143.4-.0645 150.2 4.248 154.8L192 358.2V480H112c-8.836 0-15.1 7.162-15.1 16c0 8.836 7.164 16 15.1 16h191.1c8.836 0 15.1-7.164 15.1-16C320 487.2 312.8 480 304 480zM52.54 160h310.9L208 328.4L52.54 160zM432 0c-52.31 0-100.6 28.44-126 74.25C301.7 81.97 304.5 91.72 312.2 96c7.75 4.219 17.47 1.5 21.75-6.25C353.8 54.13 391.3 32 432 32C493.8 32 544 82.25 544 144S493.8 256 432 256c-14.52 0-28.64-2.75-42-8.156c-8.156-3.219-17.52 .6875-20.83 8.844c-3.312 8.188 .6406 17.53 8.828 20.84c17.19 6.938 35.36 10.47 54 10.47c79.41 0 143.1-64.59 143.1-144S511.4 0 432 0z"/></svg>

<svg xmlns="http://www.w3.org/2000/svg" viewBox="0 0 576 512"><!-- Font Awesome Pro 6.0.0-alpha2 by @fontawesome - https://fontawesome.com License - https://fontawesome.com/license (Commercial License) --><path d="M304 480H224V358.24L411.752 154.844C416.064 150.188 417.205 143.406 414.658 137.594C412.111 131.75 406.361 128 400.002 128H15.998C9.638 128 3.888 131.75 1.341 137.594C-1.206 143.406 -0.065 150.188 4.248 154.844L192 358.24V480H112C103.164 480 96 487.162 96 496C96 504.836 103.164 512 112 512H304C312.835 512 320 504.836 320 496C320 487.162 312.835 480 304 480ZM52.544 160H363.455L208 328.406L52.544 160ZM432 0C379.687 0 331.406 28.438 305.999 74.25C301.703 81.969 304.5 91.719 312.218 96C319.968 100.219 329.687 97.5 333.968 89.75C353.75 54.125 391.296 32 432 32C493.75 32 544 82.25 544 144S493.75 256 432 256C417.484 256 403.359 253.25 389.999 247.844C381.843 244.625 372.484 248.531 369.171 256.688C365.859 264.875 369.812 274.219 377.999 277.531C395.187 284.469 413.359 288 432 288C511.406 288 576 223.406 576 144S511.406 0 432 0Z"/></svg>
